preferences/24/preferences-system-time.svg

<!-- Created with Inkscape (http://www.inkscape.org/) -->
<svg xmlns:inkscape="http://www.inkscape.org/namespaces/inkscape" xmlns:sodipodi="http://sodipodi.sourceforge.net/DTD/sodipodi-0.dtd" xmlns:xlink="http://www.w3.org/1999/xlink" xmlns="http://www.w3.org/2000/svg" xmlns:svg="http://www.w3.org/2000/svg" width="24" height="24" version="1.1" viewBox="0 0 24 24" id="svg22" sodipodi:docname="preferences-system-time.svg" inkscape:version="1.1.2 (0a00cf5339, 2022-02-04)">
  <sodipodi:namedview id="namedview24" pagecolor="#ffffff" bordercolor="#666666" borderopacity="1.0" inkscape:showpageshadow="2" inkscape:pageopacity="0.0" inkscape:pagecheckerboard="0" inkscape:deskcolor="#d1d1d1" showgrid="false" inkscape:zoom="18.116076" inkscape:cx="-11.812713" inkscape:cy="14.241495" inkscape:window-width="3440" inkscape:window-height="1356" inkscape:window-x="0" inkscape:window-y="0" inkscape:window-maximized="1" inkscape:current-layer="svg22" inkscape:pageshadow="2"/>
  <defs id="defs12">
    <linearGradient inkscape:collect="always" id="linearGradient917">
      <stop style="stop-color:#000000;stop-opacity:0.99607843" offset="0" id="stop913"/>
      <stop style="stop-color:#353a3f;stop-opacity:0.99607843" offset="1" id="stop915"/>
    </linearGradient>
    <linearGradient id="linearGradient1005-3-3" x1="5.2535" x2="9.3823996" y1="15.383" y2="2.9421" gradientTransform="matrix(0.99999,0,0,0.99999,1.632,-0.61743)" gradientUnits="userSpaceOnUse">
      <stop stop-color="#fa8200" offset="0" id="stop2"/>
      <stop stop-color="#ff9600" offset=".36953" id="stop4"/>
      <stop stop-color="#ffb400" offset="1" id="stop6"/>
    </linearGradient>
    <filter id="filter4014" x="-0.062499933" y="-0.057692993" width="1.1249999" height="1.115386" color-interpolation-filters="sRGB">
      <feGaussianBlur stdDeviation="1.093751" id="feGaussianBlur9"/>
    </filter>
    <linearGradient inkscape:collect="always" xlink:href="#linearGradient3487" id="linearGradient3403" gradientUnits="userSpaceOnUse" x1="6.9491749" y1="4.5549412" x2="11.215498" y2="59.052471"/>
    <linearGradient id="linearGradient3487">
      <stop style="stop-color:#32373c;stop-opacity:1" offset="0" id="stop3481"/>
      <stop id="stop3483" offset="0.36804965" style="stop-color:#1a1a1a;stop-opacity:1"/>
      <stop style="stop-color:#31363b;stop-opacity:1" offset="1" id="stop3485"/>
    </linearGradient>
    <linearGradient inkscape:collect="always" xlink:href="#linearGradient20604" id="linearGradient20558" gradientUnits="userSpaceOnUse" x1="25.802212" y1="20.373846" x2="25.111048" y2="58.912758"/>
    <linearGradient id="linearGradient20604">
      <stop id="stop20598" offset="0" style="stop-color:#3d3d3d;stop-opacity:1"/>
      <stop style="stop-color:#000000;stop-opacity:1" offset="0.61772454" id="stop20600"/>
      <stop id="stop20602" offset="1" style="stop-color:#3d3d3d;stop-opacity:1"/>
    </linearGradient>
    <filter inkscape:collect="always" style="color-interpolation-filters:sRGB" id="filter20720" x="-0.017024755" y="-0.016457183" width="1.0340491" height="1.0329144">
      <feGaussianBlur inkscape:collect="always" stdDeviation="0.14745661" id="feGaussianBlur20722"/>
    </filter>
    <linearGradient gradientTransform="translate(0.36067797,-0.13016949)" xlink:href="#linearGradient4555" id="linearGradient4557" x1="43.499737" y1="64.011795" x2="44.141731" y2="0.30621234" gradientUnits="userSpaceOnUse"/>
    <linearGradient id="linearGradient4555">
      <stop style="stop-color:#141618;stop-opacity:1" offset="0" id="stop4551"/>
      <stop id="stop4559" offset="0.51820582" style="stop-color:#686868;stop-opacity:1"/>
      <stop style="stop-color:#31363b;stop-opacity:1" offset="1" id="stop4553"/>
    </linearGradient>
    <filter style="color-interpolation-filters:sRGB" id="filter4601" x="-0.030244762" width="1.0604895" y="-0.030100647" height="1.0602013">
      <feGaussianBlur stdDeviation="0.014790289" id="feGaussianBlur4603"/>
    </filter>
    <linearGradient inkscape:collect="always" xlink:href="#linearGradient917" id="linearGradient919" x1="7.400631" y1="41.743092" x2="33.063145" y2="7.1074457" gradientUnits="userSpaceOnUse" gradientTransform="matrix(0.44085968,0,0,0.44085968,0.42341932,0.35374565)"/>
    <linearGradient id="d" gradientUnits="userSpaceOnUse" x1="15.99999" x2="15.99999" y1="29.999994" y2="2.0000215">
      <stop offset="0" stop-color="#788085" id="stop17"/>
      <stop offset="1" stop-color="#9ba1a6" id="stop19"/>
    </linearGradient>
    <linearGradient id="a" gradientTransform="matrix(0.85714646,0,0,0.85714646,57.223047,75.969225)" gradientUnits="userSpaceOnUse" x2="0" y1="545.79797" y2="517.79797">
      <stop offset="0" stop-color="#2a2c2f" id="stop2-6"/>
      <stop offset="1" stop-color="#424649" id="stop4-9"/>
    </linearGradient>
    <linearGradient id="b" gradientUnits="userSpaceOnUse" x1="9.0000095" x2="23.00001" y1="8.9999704" y2="22.999969">
      <stop offset="0" stop-color="#292c2f" id="stop7"/>
      <stop offset="1" stop-opacity="0" id="stop9"/>
    </linearGradient>
    <linearGradient id="c" gradientUnits="userSpaceOnUse" x2="0" y1="18" y2="7">
      <stop offset="0" stop-color="#197cf1" id="stop12"/>
      <stop offset="1" stop-color="#20bcfa" id="stop14"/>
    </linearGradient>
  </defs>
  <g transform="translate(1,1)">
    <rect style="display:inline;fill:url(#linearGradient919);fill-opacity:1;fill-rule:evenodd;stroke:none;stroke-width:0.409039;stroke-linejoin:round;stroke-miterlimit:7.8" id="rect1192" width="18.553406" height="18.830046" x="1.817819" y="1.6844761" ry="0" inkscape:label="arriere"/>
    <g transform="matrix(0.66922888,0,0,0.66922888,-256.53069,-345.23494)" id="g30">
      <path d="M 16,2 C 8.2440079,2 2,8.2440079 2,16 2,23.755992 8.2440079,30 16,30 23.755992,30 30,23.755992 30,16 30,8.2440079 23.755992,2 16,2 Z" fill="url(#d)" stroke-width="1" transform="translate(384.57143,515.798)" id="path22" style="fill:url(#d)"/>
      <rect fill="url(#a)" height="24.000078" rx="13.999987" stroke-width="0.857146" width="24.000078" x="388.57138" y="519.79797" id="rect24" style="fill:url(#a)"/>
      <path d="m 15,7 v 10.691406 l 9.283203,9.283203 c 2.276572,-1.670912 4.019245,-4.011244 4.951172,-6.740234 L 16,7 Z" fill="url(#b)" fill-rule="evenodd" opacity="0.2" transform="translate(384.57143,515.798)" id="path26" style="fill:url(#b)"/>
      <path d="m 15,7 v 10 1 h 8 V 17 H 16 V 7 Z" fill="url(#c)" transform="translate(384.57143,515.798)" id="path28" style="fill:url(#c)"/>
    </g>
    <path style="display:inline;mix-blend-mode:normal;fill:url(#linearGradient3403);fill-opacity:1;stroke:url(#linearGradient20558);stroke-width:1.16242;stroke-linecap:butt;stroke-linejoin:round;stroke-miterlimit:4;stroke-dasharray:none;stroke-opacity:1;filter:url(#filter20720)" d="M 4.7043071,3.9814882 4.6913695,60.80196 H 58.59546 l 1.022155,-2.866369 c 0,0 -23.87537,0.766388 -32.844441,-4.140386 C 16.257548,48.042344 11.401114,4.0978197 11.401114,4.0978197 Z" id="path1686" sodipodi:nodetypes="ccccscc" transform="matrix(0.33147345,0,0,0.33147345,0.4673751,0.36471705)" inkscape:label="folder"/>
    <rect style="display:inline;fill:none;fill-opacity:1;stroke:url(#linearGradient4557);stroke-width:3.71366;stroke-linejoin:round;stroke-miterlimit:7.8;stroke-dasharray:none;stroke-opacity:0.995146;filter:url(#filter4601)" id="rect4539" width="62.567089" height="62.866646" x="1.0323594" y="0.59551275" ry="6.2447233" rx="5.8029528" transform="matrix(0.31051861,0,0,0.3098857,1.0243043,1.034524)" inkscape:label="contour"/>
  </g>
</svg>

<svg width="24" height="24" version="1.1" viewBox="0 0 24 24" xmlns="http://www.w3.org/2000/svg" xmlns:xlink="http://www.w3.org/1999/xlink">
<defs>
<linearGradient id="linearGradient3403" x1="6.9492" x2="11.215" y1="4.5549" y2="59.052" gradientUnits="userSpaceOnUse">
<stop style="stop-color:#32373c" offset="0"/>
<stop style="stop-color:#1a1a1a" offset=".36805"/>
<stop style="stop-color:#31363b" offset="1"/>
</linearGradient>
<linearGradient id="linearGradient20558" x1="25.802" x2="25.111" y1="20.374" y2="58.913" gradientUnits="userSpaceOnUse">
<stop style="stop-color:#3d3d3d" offset="0"/>
<stop offset=".61772"/>
<stop style="stop-color:#3d3d3d" offset="1"/>
</linearGradient>
<linearGradient id="linearGradient4557" x1="43.5" x2="44.142" y1="64.012" y2=".30621" gradientTransform="translate(.36068 -.13017)" gradientUnits="userSpaceOnUse">
<stop style="stop-color:#141618" offset="0"/>
<stop style="stop-color:#686868" offset=".51821"/>
<stop style="stop-color:#31363b" offset="1"/>
</linearGradient>
<linearGradient id="linearGradient919" x1="7.4006" x2="33.063" y1="41.743" y2="7.1074" gradientTransform="matrix(.44086 0 0 .44086 .42342 .35375)" gradientUnits="userSpaceOnUse">
<stop style="stop-opacity:.99608" offset="0"/>
<stop style="stop-color:#353a3f;stop-opacity:.99608" offset="1"/>
</linearGradient>
<linearGradient id="d" x1="16" x2="16" y1="30" y2="2" gradientUnits="userSpaceOnUse">
<stop stop-color="#788085" offset="0"/>
<stop stop-color="#9ba1a6" offset="1"/>
</linearGradient>
<linearGradient id="a" x2="0" y1="545.8" y2="517.8" gradientTransform="matrix(.85715 0 0 .85715 57.223 75.969)" gradientUnits="userSpaceOnUse">
<stop stop-color="#2a2c2f" offset="0"/>
<stop stop-color="#424649" offset="1"/>
</linearGradient>
<linearGradient id="b" x1="9" x2="23" y1="9" y2="23" gradientUnits="userSpaceOnUse">
<stop stop-color="#292c2f" offset="0"/>
<stop stop-opacity="0" offset="1"/>
</linearGradient>
<linearGradient id="c" x2="0" y1="18" y2="7" gradientUnits="userSpaceOnUse">
<stop stop-color="#197cf1" offset="0"/>
<stop stop-color="#20bcfa" offset="1"/>
</linearGradient>
</defs>
<g transform="translate(1,1)">
<rect x="1.8178" y="1.6845" width="18.553" height="18.83" ry="0" style="fill-rule:evenodd;fill:url(#linearGradient919)"/>
<g transform="matrix(.66923 0 0 .66923 -256.53 -345.23)">
<path transform="translate(384.57 515.8)" d="m16 2c-7.756 0-14 6.244-14 14 0 7.756 6.244 14 14 14 7.756 0 14-6.244 14-14 0-7.756-6.244-14-14-14z" fill="url(#d)" style="fill:url(#d)"/>
<rect x="388.57" y="519.8" width="24" height="24" rx="14" fill="url(#a)" stroke-width=".85715" style="fill:url(#a)"/>
<path transform="translate(384.57 515.8)" d="m15 7v10.691l9.2832 9.2832c2.2766-1.6709 4.0192-4.0112 4.9512-6.7402l-13.234-13.234z" fill="url(#b)" fill-rule="evenodd" opacity=".2" style="fill:url(#b)"/>
<path transform="translate(384.57 515.8)" d="m15 7v11h8v-1h-7v-10z" fill="url(#c)" style="fill:url(#c)"/>
</g>
<path transform="matrix(.33147 0 0 .33147 .46738 .36472)" d="m4.7043 3.9815-0.012938 56.82h53.904l1.0222-2.8664s-23.875 0.76639-32.844-4.1404c-10.516-5.7529-15.372-49.697-15.372-49.697z" style="fill:url(#linearGradient3403);mix-blend-mode:normal;stroke-linejoin:round;stroke-width:1.1624;stroke:url(#linearGradient20558)"/>
<rect transform="matrix(.31052 0 0 .30989 1.0243 1.0345)" x="1.0324" y=".59551" width="62.567" height="62.867" rx="5.803" ry="6.2447" style="fill:none;stroke-linejoin:round;stroke-miterlimit:7.8;stroke-opacity:.99515;stroke-width:3.7137;stroke:url(#linearGradient4557)"/>
</g>
</svg>
